Suru++-Ubuntu/apps/scalable/openra-d2k.svg

<svg xmlns="http://www.w3.org/2000/svg" xmlns:xlink="http://www.w3.org/1999/xlink" width="256" height="256" version="1.1" viewBox="0 0 67.73 67.73">
 <defs>
  <linearGradient id="linearGradient1108" x1="296" x2="296" y1="-212" y2="202.4" gradientUnits="userSpaceOnUse" xlink:href="#linearGradient1013"/>
  <linearGradient id="linearGradient1013">
   <stop offset="0" style="stop-color:#ffffff"/>
   <stop style="stop-color:#ffffff;stop-opacity:0.09803922" offset=".135"/>
   <stop style="stop-color:#ffffff;stop-opacity:0" offset="1"/>
  </linearGradient>
  <clipPath id="clipPath1082-3-3675" clipPathUnits="userSpaceOnUse">
   <path d="M 361.9375,-212 C 507.2348,-212 528,-191.28677 528,-46.125 V 70.125 C 528,215.28618 507.2348,236 361.9375,236 H 214.0625 C 68.7652,236 48,215.28618 48,70.125 V -46.125 C 48,-191.28677 68.7652,-212 214.0625,-212 Z" style="fill:#8c59d9"/>
  </clipPath>
  <filter style="color-interpolation-filters:sRGB" id="filter910" width="1.046" height="1.05" x="-.02" y="-.03">
   <feGaussianBlur stdDeviation="2.32"/>
  </filter>
  <filter style="color-interpolation-filters:sRGB" id="filter4569" width="1.023" height="1.025" x="-.01" y="-.01">
   <feGaussianBlur stdDeviation="1.16"/>
  </filter>
 </defs>
 <g transform="translate(0,-229.26666)">
  <g style="enable-background:new" transform="matrix(0.12974173,0,0,0.12974173,3.8344818,227.85345)">
   <path d="m 301.90773,44.402363 c 148.15296,0 169.32628,21.120327 169.32628,169.135097 v 118.53478 c 0,148.01417 -21.17332,169.1351 -169.32628,169.1351 H 151.12641 c -148.1529701,0 -169.32628,-21.12093 -169.32628,-169.1351 V 213.53746 c 0,-148.01477 21.1733099,-169.135097 169.32628,-169.135097 z" style="opacity:0.2;fill:none;stroke:#000000;stroke-width:8.15723133;stroke-linecap:round;stroke-linejoin:round"/>
   <path d="m 162.53675,3.5680001 c 72.64865,0 83.03125,10.3566149 83.03125,82.9375049 v 58.125005 c 0,72.58059 -10.3826,82.9375 -83.03125,82.9375 H 88.599254 C 15.9506,227.56801 5.568,217.2111 5.568,144.63051 V 86.505505 c 0,-72.58089 10.3826,-82.9375049 83.031254,-82.9375049 z" transform="matrix(2.0393079,0,0,2.0393079,-29.55473,37.126102)" style="opacity:0.1;filter:url(#filter4569)"/>
   <path style="opacity:0.2;filter:url(#filter910)" d="m 162.53675,5.5680001 c 72.64865,0 83.03125,10.3566149 83.03125,82.9375049 v 58.125005 c 0,72.58059 -10.3826,82.9375 -83.03125,82.9375 H 88.599254 C 15.9506,229.56801 5.568,219.2111 5.568,146.63051 V 88.505505 c 0,-72.58089 10.3826,-82.9375049 83.031254,-82.9375049 z" transform="matrix(2.0393079,0,0,2.0393079,-29.55473,37.126102)"/>
   <path style="fill:#4b4b4b" d="m 301.90773,44.402363 c 148.15296,0 169.32628,21.120327 169.32628,169.135097 v 118.53478 c 0,148.01417 -21.17332,169.1351 -169.32628,169.1351 H 151.12641 c -148.1529701,0 -169.32628,-21.12093 -169.32628,-169.1351 V 213.53746 c 0,-148.01477 21.1733099,-169.135097 169.32628,-169.135097 z"/>
   <path d="M 361.9375,-212 C 507.2348,-212 528,-191.28677 528,-46.125 V 70.125 C 528,215.28618 507.2348,236 361.9375,236 H 214.0625 C 68.7652,236 48,215.28618 48,70.125 V -46.125 C 48,-191.28677 68.7652,-212 214.0625,-212 Z" clip-path="url(#clipPath1082-3-3675)" transform="matrix(1.0196539,0,0,1.0196539,-67.14326,260.569)" style="opacity:0.5;fill:none;stroke:url(#linearGradient1108);stroke-width:8;stroke-linecap:round;stroke-linejoin:round"/>
   <path style="fill:#cc0000" d="M 355.5476,480.50342 222.59206,413.3586 91.905231,484.81876 114.67823,337.62164 6.3311227,235.41348 153.36115,211.58547 217.08579,76.957195 285.18234,209.4278 432.91344,228.43111 327.9694,334.13045 Z" transform="matrix(0.95611459,0,0,1,16.533001,-8.0831267)"/>
   <g style="fill:#ffd700" transform="matrix(1.8830239,0,0,1.8781118,-146.8644,-76.906083)">
    <path d="m 137.43744,171.69421 18.86296,18.9937 17.78834,-17.66589 c 27.05847,29.021 55.43807,56.99501 82.28704,86.12782 4.03444,4.06233 10.59815,4.085 14.66056,0.0506 4.06232,-4.03445 4.08499,-10.59815 0.0506,-14.66056 -28.81871,-27.1901 -57.72545,-54.60143 -86.55328,-81.89095 l 23.96499,-23.80003 -33.34026,-4.61605 z" style="fill:#ffd700"/>
    <path d="m 198.2887,110.1955 c 15.51743,8.7394 27.29872,21.28122 34.2484,34.3924 7.04394,13.28902 10.13959,27.16218 10.20325,38.25433 0.13054,22.74374 -18.43771,41.18184 -41.18183,41.18184 -12.13597,0 -23.04607,-5.24868 -30.58302,-13.60085 l -4.16863,3.51033 c -0.70999,-0.27231 -1.46387,-0.41221 -2.22429,-0.41276 -1.82948,1.9e-4 -3.56621,0.80531 -4.74859,2.20136 -2.97368,0.38896 -5.46251,2.44529 -6.40534,5.29224 -3.13486,6.28843 -8.63524,11.21997 -15.29104,13.4776 -0.0637,0.0216 -0.11992,0.05 -0.1758,0.0783 -3.07749,1.12758 -6.16259,3.1643 -8.78919,5.80245 -5.19155,5.23656 -7.72858,11.93658 -6.30024,16.63822 -0.14098,0.40857 -0.21361,0.83759 -0.21498,1.26979 1.5e-4,2.17082 1.75991,3.93058 3.93073,3.93073 0.54341,-0.002 1.08053,-0.11639 1.57745,-0.33632 4.69369,1.05881 11.06885,-1.54582 16.05444,-6.55917 2.82624,-2.85072 4.94356,-6.22349 5.98303,-9.53062 2.31696,-6.62278 7.29699,-12.01856 13.62281,-15.05312 0.15105,-0.0725 0.27303,-0.14714 0.38218,-0.22358 2.12082,-1.01408 3.67251,-2.92895 4.225,-5.2139 9.70222,11.44481 24.25255,18.75299 40.51876,19.13577 29.83352,0.70205 52.13299,-21.25802 53.16414,-52.83642 0.51894,-15.89259 -5.62993,-36.3847 -19.6412,-53.19089 -10.70835,-12.84441 -26.40987,-23.50795 -44.18699,-28.20777 z" style="fill:#ffd700"/>
   </g>
  </g>
 </g>
</svg>

<svg width="256" height="256" version="1.1" viewBox="0 0 67.73 67.73" xmlns="http://www.w3.org/2000/svg" xmlns:xlink="http://www.w3.org/1999/xlink">
 <defs>
  <linearGradient id="linearGradient1108" x1="296" x2="296" y1="-212" y2="202.4" gradientUnits="userSpaceOnUse">
   <stop style="stop-color:#ffffff" offset="0"/>
   <stop style="stop-color:#ffffff;stop-opacity:.09803922" offset=".135"/>
   <stop style="stop-color:#ffffff;stop-opacity:0" offset="1"/>
  </linearGradient>
  <clipPath id="clipPath1082-3-3675">
   <path d="M 361.9375,-212 C 507.2348,-212 528,-191.28677 528,-46.125 V 70.125 C 528,215.28618 507.2348,236 361.9375,236 H 214.0625 C 68.7652,236 48,215.28618 48,70.125 V -46.125 C 48,-191.28677 68.7652,-212 214.0625,-212 Z" style="fill:#8c59d9"/>
  </clipPath>
  <filter id="filter910" x="-.02" y="-.03" width="1.046" height="1.05" style="color-interpolation-filters:sRGB">
   <feGaussianBlur stdDeviation="2.32"/>
  </filter>
  <filter id="filter4569" x="-.01" y="-.01" width="1.023" height="1.025" style="color-interpolation-filters:sRGB">
   <feGaussianBlur stdDeviation="1.16"/>
  </filter>
 </defs>
 <g transform="translate(0,-229.26666)">
  <g transform="matrix(.12974173 0 0 .12974173 3.8344818 227.85345)" style="enable-background:new">
   <path d="m301.90773 44.402363c148.15296 0 169.32628 21.120327 169.32628 169.1351v118.53478c0 148.01417-21.17332 169.1351-169.32628 169.1351h-150.78132c-148.15297 0-169.32628-21.12093-169.32628-169.1351v-118.53478c0-148.01477 21.17331-169.1351 169.32628-169.1351z" style="fill:none;opacity:.2;stroke-linecap:round;stroke-linejoin:round;stroke-width:8.1572313;stroke:#000000"/>
   <path transform="matrix(2.0393079,0,0,2.0393079,-29.55473,37.126102)" d="m162.53675 3.5680001c72.64865 0 83.03125 10.356615 83.03125 82.937505v58.125005c0 72.58059-10.3826 82.9375-83.03125 82.9375h-73.937496c-72.648654 0-83.031254-10.35691-83.031254-82.9375v-58.125005c0-72.58089 10.3826-82.937505 83.031254-82.937505z" style="filter:url(#filter4569);opacity:.1"/>
   <path transform="matrix(2.0393079,0,0,2.0393079,-29.55473,37.126102)" d="m162.53675 5.5680001c72.64865 0 83.03125 10.356615 83.03125 82.937505v58.125005c0 72.58059-10.3826 82.9375-83.03125 82.9375h-73.937496c-72.648654 0-83.031254-10.35691-83.031254-82.9375v-58.125005c0-72.58089 10.3826-82.937505 83.031254-82.937505z" style="filter:url(#filter910);opacity:.2"/>
   <path d="m301.90773 44.402363c148.15296 0 169.32628 21.120327 169.32628 169.1351v118.53478c0 148.01417-21.17332 169.1351-169.32628 169.1351h-150.78132c-148.15297 0-169.32628-21.12093-169.32628-169.1351v-118.53478c0-148.01477 21.17331-169.1351 169.32628-169.1351z" style="fill:#4b4b4b"/>
   <path transform="matrix(1.0196539,0,0,1.0196539,-67.14326,260.569)" d="M 361.9375,-212 C 507.2348,-212 528,-191.28677 528,-46.125 V 70.125 C 528,215.28618 507.2348,236 361.9375,236 H 214.0625 C 68.7652,236 48,215.28618 48,70.125 V -46.125 C 48,-191.28677 68.7652,-212 214.0625,-212 Z" clip-path="url(#clipPath1082-3-3675)" style="fill:none;opacity:.5;stroke-linecap:round;stroke-linejoin:round;stroke-width:8;stroke:url(#linearGradient1108)"/>
   <path transform="matrix(.95611459 0 0 1 16.533001 -8.0831267)" d="m355.5476 480.50342-132.95554-67.14482-130.68683 71.46016 22.772999-147.19712-108.34711-102.20816 147.03003-23.82801 63.72464-134.62828 68.09655 132.4706 147.7311 19.00331-104.94404 105.69934z" style="fill:#cc0000"/>
   <g transform="matrix(1.8830239,0,0,1.8781118,-146.8644,-76.906083)" style="fill:#ffd700">
    <path d="m137.43744 171.69421 18.86296 18.9937 17.78834-17.66589c27.05847 29.021 55.43807 56.99501 82.28704 86.12782 4.03444 4.06233 10.59815 4.085 14.66056 0.0506 4.06232-4.03445 4.08499-10.59815 0.0506-14.66056-28.81871-27.1901-57.72545-54.60143-86.55328-81.89095l23.96499-23.80003-33.34026-4.61605z" style="fill:#ffd700"/>
    <path d="m198.2887 110.1955c15.51743 8.7394 27.29872 21.28122 34.2484 34.3924 7.04394 13.28902 10.13959 27.16218 10.20325 38.25433 0.13054 22.74374-18.43771 41.18184-41.18183 41.18184-12.13597 0-23.04607-5.24868-30.58302-13.60085l-4.16863 3.51033c-0.70999-0.27231-1.46387-0.41221-2.22429-0.41276-1.82948 1.9e-4 -3.56621 0.80531-4.74859 2.20136-2.97368 0.38896-5.46251 2.44529-6.40534 5.29224-3.13486 6.28843-8.63524 11.21997-15.29104 13.4776-0.0637 0.0216-0.11992 0.05-0.1758 0.0783-3.07749 1.12758-6.16259 3.1643-8.78919 5.80245-5.19155 5.23656-7.72858 11.93658-6.30024 16.63822-0.14098 0.40857-0.21361 0.83759-0.21498 1.26979 1.5e-4 2.17082 1.75991 3.93058 3.93073 3.93073 0.54341-2e-3 1.08053-0.11639 1.57745-0.33632 4.69369 1.05881 11.06885-1.54582 16.05444-6.55917 2.82624-2.85072 4.94356-6.22349 5.98303-9.53062 2.31696-6.62278 7.29699-12.01856 13.62281-15.05312 0.15105-0.0725 0.27303-0.14714 0.38218-0.22358 2.12082-1.01408 3.67251-2.92895 4.225-5.2139 9.70222 11.44481 24.25255 18.75299 40.51876 19.13577 29.83352 0.70205 52.13299-21.25802 53.16414-52.83642 0.51894-15.89259-5.62993-36.3847-19.6412-53.19089-10.70835-12.84441-26.40987-23.50795-44.18699-28.20777z" style="fill:#ffd700"/>
   </g>
  </g>
 </g>
</svg>
